brandFactory_export/3.Masa/Planta _3Masa.svg

<?xml version="1.0" encoding="UTF-8"?>
<svg width="24px" height="24px" viewBox="0 0 24 24" version="1.1" xmlns="http://www.w3.org/2000/svg" xmlns:xlink="http://www.w3.org/1999/xlink">
    <title>3.Masa/Planta _3Masa</title>
    <g id="Symbols" stroke="none" stroke-width="1" fill="none" fill-rule="evenodd">
        <g id="3.Masa/Planta-_3Masa" fill="#5CB615" fill-rule="nonzero">
            <path d="M13.8756303,8.84705882 C13.4420168,9.69411765 13.1058824,10.5983193 12.8571429,11.4621849 L17.3176471,11.4621849 C18.2890756,11.4621849 19.0789916,12.2420168 19.0789916,13.1932773 L19.0789916,14.9714286 C19.0789916,15.7882353 18.4941176,16.4672269 17.7243697,16.6554622 L6.04369748,16.6554622 C5.27394958,16.4806723 4.6789916,15.7882353 4.6789916,14.9714286 L4.6789916,13.1932773 C4.6789916,12.2420168 5.47226891,11.4621849 6.44033613,11.4621849 L10.9512605,11.4621849 C10.7327731,9.51932773 10.3159664,8.0605042 9.85210084,6.98151261 C10.0907563,6.85714286 10.3159664,6.69915966 10.5243697,6.51428571 L10.6655462,6.35630252 C11.2,7.51260504 11.6638655,9.04201681 11.9226891,11.0823529 C12.2084034,10.1512605 12.5747899,9.15966387 13.0689076,8.23529412 L13.0789916,8.24537815 L13.1092437,8.27563025 C13.3210084,8.51428571 13.589916,8.68907563 13.8756303,8.84705882 C14.5983193,7.44537815 15.6067227,6.25210084 16.9915966,5.85546218 C17.2537815,5.78487395 17.4117647,5.51260504 17.3411765,5.25042017 C17.3411765,5.24705882 17.3411765,5.24369748 17.3378151,5.24369748 C17.2571429,4.98151261 16.9781513,4.83361345 16.7159664,4.91428571 C15.0722689,5.38151261 13.8957983,6.70252101 13.0655462,8.23865546 L12.810084,7.9092437 C12.4033613,7.27731092 12.2084034,6.51764706 12.2084034,5.62689076 C12.205042,3.26722689 13.5798319,1.91596639 15.9831933,1.91596639 L18.1983193,1.91596639 C19.0588235,1.91596639 19.7512605,2.60504202 19.7512605,3.44201681 L19.7310924,5.9697479 C19.5932773,8.14789916 18.2655462,9.33445378 15.9798319,9.33445378 C15.1428571,9.33109244 14.4504202,9.16638655 13.8756303,8.84705882 L13.8756303,8.84705882 Z M9.85210084,6.97815126 C9.26722689,7.28067227 8.58487395,7.43529412 7.78487395,7.43529412 C5.48907563,7.43529412 4.1512605,6.24201681 4.02352941,4.06386555 L4.01344538,4.04369748 L4.00336134,3.89915966 L4.00336134,1.53613445 C4.00336134,0.68907563 4.70588235,0 5.56638655,0 L7.79159664,0 C10.2252101,0 11.5697479,1.3210084 11.5697479,3.7210084 C11.5697479,4.71260504 11.3210084,5.52941176 10.8268908,6.16134454 L10.6588235,6.35294118 C9.33445378,3.47563025 7.57310924,2.96134454 7.45546218,2.93109244 C7.19327731,2.8605042 6.9210084,3.01512605 6.85042017,3.28067227 C6.77310924,3.53277311 6.92773109,3.80504202 7.19663866,3.88235294 C7.22016807,3.88907563 8.70252101,4.36302521 9.85210084,6.97815126 Z M6.29915966,17.8554622 L17.4655462,17.8554622 L17.0117647,22.1680672 C17.0117647,22.9344538 16.3092437,23.6268908 15.4386555,23.6268908 L8.3092437,23.6268908 C7.4487395,23.6268908 6.74621849,22.9378151 6.74621849,22.0907563 L6.29915966,17.8554622 L6.29915966,17.8554622 Z" id="Planta-_3Masa"></path>
        </g>
    </g>
</svg>

<svg width="24" height="24" viewBox="0 0 24 24" xmlns="http://www.w3.org/2000/svg"><path d="M13.876 8.847a14.75 14.75 0 00-1.019 2.615h4.46c.972 0 1.762.78 1.762 1.731v1.778c0 .817-.585 1.496-1.355 1.684H6.044c-.77-.174-1.365-.867-1.365-1.684v-1.778c0-.951.793-1.73 1.761-1.73h4.511c-.218-1.944-.635-3.402-1.099-4.481a3.35 3.35 0 00.672-.468l.142-.158c.534 1.157.998 2.686 1.257 4.726.285-.93.652-1.922 1.146-2.847l.01.01.03.03c.212.24.48.414.767.572.722-1.402 1.73-2.595 3.116-2.992a.496.496 0 00.35-.605c0-.003 0-.006-.004-.006a.498.498 0 00-.622-.33c-1.644.468-2.82 1.789-3.65 3.325l-.256-.33c-.407-.632-.602-1.391-.602-2.282-.003-2.36 1.372-3.711 3.775-3.711h2.215c.86 0 1.553.689 1.553 1.526l-.02 2.528c-.138 2.178-1.465 3.364-3.751 3.364-.837-.003-1.53-.168-2.104-.487zM9.852 6.978c-.585.303-1.267.457-2.067.457-2.296 0-3.634-1.193-3.761-3.371l-.01-.02-.01-.145V1.536C4.003.69 4.705 0 5.565 0h2.226c2.433 0 3.778 1.321 3.778 3.721 0 .992-.249 1.808-.743 2.44l-.168.192C9.334 3.476 7.573 2.96 7.455 2.93a.493.493 0 00-.605.35.487.487 0 00.347.601c.023.007 1.506.481 2.655 3.096zM6.3 17.855h11.167l-.454 4.313c0 .766-.703 1.459-1.573 1.459h-7.13c-.86 0-1.563-.69-1.563-1.536L6.3 17.855z" fill="#5CB615" fill-rule="nonzero"/></svg>
